X: 1
T: Woo'd an' Married an' a'
M: 9/8
L: 1/8
R: slipjig
S: Glen Collection, Vol. 1 (1891)
Z: AK/Fiddler's Companion
K: F
f | c2B ABG  F3   | c2c cdA c2f | dcB (A>GA) FGA | D2d d>ec d2 :|
f | cde f>gf e>dc | A2c cdA c2d | cde  f>gf e>dc | A2d dec  d2 ||
f | cde f>ga efg  | ABc fcA c2f | cdB  ABG   FGA | D2d dec  d2 |]
